X:441
T:Polska från Calmar
T:Ur Olof Åhlatröms 'Traditioner af Svenska Folk-Dansar 1814'
R:Polska
O:Kalmar, Småland
B:50 Småländska låtar
Z:Jonas Brunskog
N:nr. 24
M:3/4
L:1/8
K:Dm
|:A>A d2 e2|f>a g2 a2|d>f e>d ^c>d|e>^c A4|
A>A d2 e2|f>a g2 a2|d>f e>d ^c>A|d>d d4:|
|:A>B c>=B c>A|d>e ^c3 A|d>^c d>e f>d|g>f e3 A|
d>^c d2 e2|f>a g2a2|d>f e>d ^c>A|d>d d4:|
(:musicend:)

(:music:)
